X: 90
T: 90. Hast du denn, Jesu, dein Angesicht
N: Derived from chor090.krn
C: Johann Sebastian Bach
%%abc-version 2.0
%%abcx-abcm2ps-target-version 5.9.1 (29 Sep 2008)
%%abc-creator hum2abc beta
%%abcx-conversion-date 2019/03/11 17:28:18
%%abc-edited-by Craig Stuart Sapp
%%humdrum-veritas 1317720375
%%humdrum-veritas-data 338319961
%%
%%barnumbers 0
L: 1/4
M: 3/4
%%staves [1 2 3 4]
V: 1 clef=treble
V: 2 clef=treble
V: 3 clef=treble-8
V: 4 clef=bass
K: Bb
[V:1] BBf | 
[V:2] FFF | 
[V:3] ddc | 
[V:4] B,B,A, | 
[V:1] d3/c/B | 
[V:2] F3/F/G | 
[V:3] B3/c/ d/=e/ | 
[V:4] B,3/A,/G, | 
[V:1] AB/A/G/F/ | 
[V:2] CCC | 
[V:3] ffA | 
[V:4] F,C,E, | 
[V:1] Bcd/e/ | 
[V:2] FG/A/B/c/ | 
[V:3] BEF | 
[V:4] D,C,B,, | 
[V:1] c2!fermata!B :|]  
[V:2] A2!fermata!F :|]  
[V:3] fe!fermata!d :|]  
[V:4] F,2!fermata!B,, :|]  
[V:1] fe/d/c/B/ | 
[V:2] BAF | 
[V:3] def | 
[V:4] B,,C,D, | 
[V:1] !fermata!g2z | 
[V:2] !fermata!B2x | 
[V:3] !fermata!e2x | 
[V:4] !fermata!E,2z | 
[V:1] def | 
[V:2] BBA/G/ | 
[V:3] fgc | 
[V:4] B,A,/G,/F,/E,/ | 
[V:1] fg/f/e/d/ | 
[V:2] FBG | 
[V:3] cBB | 
[V:4] D,D,E, | 
[V:1] !fermata!c2z | 
[V:2] !fermata!A2x | 
[V:3] !fermata!f2x | 
[V:4] !fermata!F,2z | 
[V:1] FGA | 
[V:2] FCC | 
[V:3] BA/G/e | 
[V:4] D,=E,^F, | 
[V:1] Bcd/e/ | 
[V:2] B,FF | 
[V:3] dcB | 
[V:4] G,A,B, | 
[V:1] c2!fermata!B |]  
[V:2] F3/E/!fermata!D |]  
[V:3] BA!fermata!F |]  
[V:4] F,2!fermata!B,, |]  



